X:2
T:Joe Cormier's
R:reel
C:Trad. Quebec
S:Dominique Renaudin <domren:free.fr> scots_music 2005-6-27
M:4/4
L:1/8
%Q:2/4=100
K:Amix
AB \
|: c2 Bc Afed | cAce agef | g2 fa geef | gedB GABG |
| c2 Bc Afed | cAce agef | gedB Gfed |1 cABc A2 AB :|2 cABc A2 z2 ||
|: ABcd efec | ABcd ge (3cBA | GABc dedB | GABc dBAG |
| ABcd eaaf | geaf geef | gedB Gfed |1 cABc A3 z :|2 cABc A3 G ||
|: ~A2 aA AgAA | fAAe- edef | ~g2 fa geef | gedB GABG |
| ~A2 aA AgAA | fAAe- edef | gedB Gfed |1 cABc A3 G :|2 cABc A2 ||
